X:124
T:The Highland Watch
S:Robertson, Caledonian Museum book 3 p67
M:C
L:1/8
Q:1/4=60 "Slow and Majestic"
N:first note is a crotchet in the book
K:A Minor
e|\
c<AA>B      cAA({e}f)|     c<AA>E        G2 G>e    |(c<A)(A>B) (cA)(A>B)    |(c>d)(ec)    ({B}A3)B |
c>d(ed) ({f}e>d)(cd) |({cd}e>d)(cE) ({^F}G2)G(c/B/)|TA>Bcd  ({f}e>d)c({^g}a)| g>e({e}d>c) ({B}A2)A:|
(a/b/)|\
({ab}c'a)(a>Tb)             (c'a)a({^d'}e')|      (c'>a){a}(g>e)              g2  Tg({^fg}a/b/) |\
    (c'a)Tab                (c'a)a>b       |       c'>d'({c'd'}e')c'      ({b}a2) (ab)          |
    (c'>d')({d'}e'd') ({c'd'}e'>d')(c'>d') |({c'd'}e'>d') (d'/c'/b/a/)        g2  Tg(c'/b/)     |\
    Ta>bc'>d'         ({c'd'}e'c')(d'e')   |      (c'>a){c'}(b>^g)            a2   a>b          |
     c'aaTb                   c'aa({^d'}e')|  ({d'}c'>a)  (a/g/)({g}f/e/) ({e}g2) Tga/b/        |\
     c'>aa>b                  c'aa(e/^g/)  |       a>e^gB                 ({B}A2) (AB)          |
     c>de({a}g)           ({f}e>)d(cd)     |  ({cd}e>d)cE                     G2   G(c/B/)      |\
    TA>BTc>d              ({f}e>)d(ca)     |      (g>e)({e}d>)c           ({B}A2)  A2          |]

